X: 46
T:Annie Lisle. HS.46
M:2/4
Q:60
C:"Set of Quadrilles,No4
S:Henry Stables MS,Cumbria,late19thC
R:Quadrille
O:Walthwaite,nr.Ambleside.
A:England
Z:vmp.Chris Partington
K:D
A|d>e fe|dB BA|e>d cd|e3A|!
d>e fe|dB BA|e>f gc|d3:|!
e|ff ee|dd cc|BB  Ad|e3A|!
d>e fe|dBBA|e>fgc|d3||!
e|f/f/f/f/ e/e/e/e/|d/d/d/d/ c/c/c/c/|B/B/B/B/ Ad|!
e3A|d>e fe|dB BA|e>f gc|d3||
